icons/forestadmin-logo.svg

<?xml version="1.0" encoding="UTF-8"?>
<svg width="512px" height="128px" viewBox="0 0 512 128" version="1.1" xmlns="http://www.w3.org/2000/svg" xmlns:xlink="http://www.w3.org/1999/xlink" preserveAspectRatio="xMidYMid">
    <defs>
        <path d="M3.9903519,0 L123.700909,0 C125.904719,0 127.691261,1.7865414 127.691261,3.9903519 L127.691261,123.700909 C127.691261,125.904719 125.904719,127.691261 123.700909,127.691261 L3.9903519,127.691261 C1.7865414,127.691261 0,125.904719 0,123.700909 L0,3.9903519 C0,1.7865414 1.7865414,0 3.9903519,0 Z" id="path-1"></path>
    </defs>
    <g>
        <path d="M160.082277,85.1275071 L160.082277,65.5268986 L177.831362,65.5268986 L177.831362,59.2700268 L160.082277,59.2700268 L160.082277,46.6924377 L179.299812,46.6924377 L179.299812,40.4355659 L153.442332,40.4355659 L153.442332,85.1275071 L160.082277,85.1275071 Z M199.283494,86.0851916 C202.348084,86.0851916 205.104087,85.4041715 207.551503,84.0421314 C209.998919,82.6800913 211.924929,80.8072861 213.329533,78.4237159 C214.734137,76.0401457 215.436439,73.3586293 215.436439,70.3791665 C215.436439,67.3997038 214.734137,64.7181873 213.329533,62.3346171 C211.924929,59.9510469 209.998919,58.0782417 207.551503,56.7162016 C205.104087,55.3541615 202.348084,54.6731415 199.283494,54.6731415 C196.218904,54.6731415 193.462901,55.3541615 191.015485,56.7162016 C188.568069,58.0782417 186.642059,59.9510469 185.237456,62.3346171 C183.832852,64.7181873 183.13055,67.3997038 183.13055,70.3791665 C183.13055,73.3586293 183.832852,76.0401457 185.237456,78.4237159 C186.642059,80.8072861 188.568069,82.6800913 191.015485,84.0421314 C193.462901,85.4041715 196.218904,86.0851916 199.283494,86.0851916 Z M199.283494,79.9560111 C196.474286,79.9560111 194.186485,79.0834541 192.420089,77.3383402 C190.653693,75.5932263 189.770495,73.2735018 189.770495,70.3791665 C189.770495,67.4848313 190.653693,65.1651067 192.420089,63.4199928 C194.186485,61.6748789 196.474286,60.802322 199.283494,60.802322 C202.092702,60.802322 204.380504,61.6748789 206.146899,63.4199928 C207.913295,65.1651067 208.796493,67.4848313 208.796493,70.3791665 C208.796493,73.2735018 207.913295,75.5932263 206.146899,77.3383402 C204.380504,79.0834541 202.092702,79.9560111 199.283494,79.9560111 Z M227.439417,85.1275071 L227.439417,72.0391529 C227.439417,68.5914889 228.226847,66.0695865 229.801706,64.4734457 C231.376564,62.877305 233.717571,62.0792346 236.824725,62.0792346 L236.824725,62.0792346 L237.782409,62.0792346 L237.782409,54.7369871 L237.33549,54.7369871 C234.909356,54.7369871 232.855655,55.3967253 231.174387,56.7162016 C229.493118,58.035678 228.290692,59.8233556 227.567108,62.0792346 L227.567108,62.0792346 L227.439417,62.0792346 L227.439417,55.6308259 L221.182545,55.6308259 L221.182545,85.1275071 L227.439417,85.1275071 Z M255.723031,86.0851916 C261.213756,86.0851916 265.661668,83.7441851 269.066768,79.0621723 L269.066768,79.0621723 L264.66142,74.9122063 C263.597326,76.3593739 262.352336,77.5830818 260.92645,78.58333 C259.500565,79.5835782 257.723528,80.0837023 255.59534,80.0837023 C253.041515,80.0837023 250.94525,79.285632 249.306546,77.6894912 C247.667841,76.0933504 246.784643,73.9970856 246.656952,71.4006966 L246.656952,71.4006966 L269.513688,71.4006966 L269.513688,70.3791665 C269.513688,65.5694624 268.268698,61.7493655 265.778718,58.9188759 C263.288739,56.0883863 259.830434,54.6731415 255.403803,54.6731415 C252.339213,54.6731415 249.668337,55.3541615 247.391177,56.7162016 C245.114016,58.0782417 243.368902,59.9616878 242.155835,62.3665399 C240.942768,64.771392 240.336235,67.4635494 240.336235,70.4430122 C240.336235,73.5501662 240.96405,76.2848873 242.219681,78.6471757 C243.475311,81.009464 245.262989,82.8397054 247.582714,84.1378999 C249.902438,85.4360943 252.615877,86.0851916 255.723031,86.0851916 Z M262.746051,66.8676569 L246.97618,66.8676569 C247.359254,64.7820329 248.253093,63.1858922 249.657697,62.0792346 C251.0623,60.972577 252.849978,60.4192482 255.020729,60.4192482 C257.276608,60.4192482 259.096209,60.9832179 260.479531,62.1111574 C261.862853,63.2390969 262.61836,64.8245967 262.746051,66.8676569 L262.746051,66.8676569 Z M284.389719,86.0851916 C287.922511,86.0851916 290.721078,85.329685 292.78542,83.8186717 C294.849762,82.3076585 295.881933,80.0837023 295.881933,77.1468033 C295.881933,75.1888707 295.39245,73.5395252 294.413483,72.198767 C293.434517,70.8580088 291.966068,69.7407102 290.008135,68.8468714 L290.008135,68.8468714 L284.517411,66.2292005 C283.240498,65.633308 282.3573,65.0799792 281.867817,64.5692142 C281.378334,64.0584491 281.133592,63.4412747 281.133592,62.7176909 C281.133592,61.2279595 282.346659,60.4830938 284.772793,60.4830938 C287.028672,60.4830938 289.646343,61.1215501 292.625806,62.3984627 L292.625806,62.3984627 L295.179631,56.9715841 C293.562208,56.2480003 291.870299,55.6840306 290.103903,55.2796749 C288.337508,54.8753193 286.624317,54.6731415 284.96433,54.6731415 C281.686921,54.6731415 279.122455,55.3967253 277.270932,56.8438929 C275.419408,58.2910605 274.493647,60.3554026 274.493647,63.036919 C274.493647,66.7399656 276.557989,69.5704552 280.686673,71.5283879 L280.686673,71.5283879 L286.049706,74.1460587 C287.241491,74.7419513 288.060843,75.2846391 288.507763,75.7741223 C288.954682,76.2636055 289.178142,76.8275752 289.178142,77.4660315 C289.178142,79.2962729 287.645847,80.2113936 284.581256,80.2113936 C281.55923,80.2113936 278.430794,79.274991 275.195949,77.4021859 L275.195949,77.4021859 L272.386741,82.9567557 C274.089291,83.935722 275.994019,84.7018696 278.100925,85.2551984 C280.207831,85.8085272 282.304096,86.0851916 284.389719,86.0851916 Z M314.205629,85.1913528 L314.205629,79.445246 L312.673334,79.445246 C311.60924,79.445246 310.832451,79.2005044 310.342968,78.7110213 C309.853485,78.2215381 309.608743,77.4447496 309.608743,76.3806558 L309.608743,76.3806558 L309.608743,60.9300132 L315.610233,60.9300132 L315.610233,55.6308259 L309.608743,55.6308259 L309.608743,43.8193843 L303.351872,43.8193843 L303.351872,55.6308259 L298.11653,55.6308259 L298.11653,60.9300132 L303.351872,60.9300132 L303.351872,77.5937228 C303.351872,80.0198567 304.032892,81.8926619 305.394932,83.2121382 C306.756972,84.5316146 308.736186,85.1913528 311.332575,85.1913528 L311.332575,85.1913528 L314.205629,85.1913528 Z M343.000008,85.1275071 L347.277665,74.0183675 L366.814428,74.0183675 L371.092085,85.1275071 L378.370487,85.1275071 L360.110637,40.4355659 L353.981457,40.4355659 L335.721606,85.1275071 L343.000008,85.1275071 Z M364.45214,67.8891869 L349.639954,67.8891869 L357.046047,48.7354978 L364.45214,67.8891869 Z M394.970351,86.0851916 C397.311358,86.0851916 399.311854,85.6169903 400.97184,84.6805877 C402.631827,83.7441851 403.951303,82.4459907 404.93027,80.7860043 L404.93027,80.7860043 L405.057961,80.7860043 L405.057961,85.1275071 L411.314833,85.1275071 L411.314833,40.4355659 L405.057961,40.4355659 L405.057961,59.9723288 L404.93027,59.9723288 C403.951303,58.3123424 402.631827,57.0141479 400.97184,56.0777453 C399.311854,55.1413427 397.311358,54.6731415 394.970351,54.6731415 C392.331399,54.6731415 389.926546,55.3115978 387.755795,56.5885104 C385.585044,57.865423 383.850571,59.6850234 382.552376,62.0473118 C381.254182,64.4096001 380.605084,67.186885 380.605084,70.3791665 C380.605084,73.571448 381.254182,76.348733 382.552376,78.7110213 C383.850571,81.0733096 385.585044,82.8929101 387.755795,84.1698227 C389.926546,85.4467353 392.331399,86.0851916 394.970351,86.0851916 Z M396.311109,79.9560111 C393.587029,79.9560111 391.394996,79.0728132 389.73501,77.3064174 C388.075023,75.5400216 387.24503,73.230938 387.24503,70.3791665 C387.24503,67.527395 388.075023,65.2183114 389.73501,63.4519156 C391.394996,61.6855199 393.587029,60.802322 396.311109,60.802322 C399.03519,60.802322 401.227223,61.6855199 402.887209,63.4519156 C404.547196,65.2183114 405.377189,67.527395 405.377189,70.3791665 C405.377189,73.230938 404.547196,75.5400216 402.887209,77.3064174 C401.227223,79.0728132 399.03519,79.9560111 396.311109,79.9560111 Z M425.552408,85.1275071 L425.552408,69.8684015 C425.552408,66.8038112 426.148301,64.5479323 427.340086,63.1007647 C428.531871,61.653597 430.128012,60.9300132 432.128508,60.9300132 C434.043877,60.9300132 435.501686,61.4620602 436.501934,62.526154 C437.502182,63.5902478 438.002306,65.1438248 438.002306,67.186885 L438.002306,67.186885 L438.002306,85.1275071 L444.259178,85.1275071 L444.259178,69.8045558 C444.259178,66.7399656 444.85507,64.4947276 446.046856,63.0688418 C447.238641,61.6429561 448.856063,60.9300132 450.899123,60.9300132 C452.771929,60.9300132 454.208455,61.4620602 455.208703,62.526154 C456.208952,63.5902478 456.709076,65.1438248 456.709076,67.186885 L456.709076,67.186885 L456.709076,85.1275071 L462.965948,85.1275071 L462.965948,66.8676569 C462.965948,62.7389728 462.029545,59.6743825 460.15674,57.6738861 C458.283935,55.6733897 455.857801,54.6731415 452.878338,54.6731415 C450.877842,54.6731415 449.0476,55.1732656 447.387614,56.1735138 C445.727627,57.173762 444.471997,58.6741343 443.620722,60.6746307 L443.620722,60.6746307 L443.49303,60.6746307 C441.833044,56.6736379 438.853581,54.6731415 434.554642,54.6731415 C432.554146,54.6731415 430.777109,55.1200609 429.223532,56.0138997 C427.669955,56.9077385 426.488811,58.3123424 425.680099,60.2277113 L425.680099,60.2277113 L425.552408,60.2277113 L425.552408,55.6308259 L419.295536,55.6308259 L419.295536,85.1275071 L425.552408,85.1275071 Z M473.755859,49.3739541 C475.032772,49.3739541 476.118147,48.9270347 477.011986,48.0331959 C477.905825,47.1393571 478.352744,46.0539814 478.352744,44.7770688 C478.352744,43.5001561 477.905825,42.4147804 477.011986,41.5209416 C476.118147,40.6271028 475.032772,40.1801834 473.755859,40.1801834 C472.478946,40.1801834 471.393571,40.6271028 470.499732,41.5209416 C469.605893,42.4147804 469.158974,43.5001561 469.158974,44.7770688 C469.158974,46.0539814 469.605893,47.1393571 470.499732,48.0331959 C471.393571,48.9270347 472.478946,49.3739541 473.755859,49.3739541 Z M476.884295,85.1275071 L476.884295,55.6308259 L470.627423,55.6308259 L470.627423,85.1275071 L476.884295,85.1275071 Z M491.121871,85.1275071 L491.121871,71.0176228 C491.121871,67.527395 491.824172,64.9735698 493.228776,63.3561472 C494.63338,61.7387245 496.548749,60.9300132 498.974883,60.9300132 C503.486641,60.9300132 505.74252,63.3135834 505.74252,68.0807238 L505.74252,68.0807238 L505.74252,85.1275071 L511.999392,85.1275071 L511.999392,66.9953481 C511.999392,62.7389728 510.999143,59.6211778 508.998647,57.6419633 C506.998151,55.6627487 504.295352,54.6731415 500.890252,54.6731415 C496.506185,54.6731415 493.292622,56.482101 491.249562,60.10002 L491.249562,60.10002 L491.121871,60.10002 L491.121871,55.6308259 L484.864999,55.6308259 L484.864999,85.1275071 L491.121871,85.1275071 Z" fill="#3A3335"></path>
        <g>
            <mask id="mask-2" fill="white">
                <use xlink:href="#path-1"></use>
            </mask>
            <use fill="#9B183D" xlink:href="#path-1"></use>
            <rect fill="#9B183D" mask="url(#mask-2)" x="0" y="-7.08828888e-15" width="127.691261" height="127.691261"></rect>
            <rect fill="#EE0036" mask="url(#mask-2)" x="63.8456304" y="0" width="63.8456304" height="63.8456304"></rect>
            <rect fill="#702440" mask="url(#mask-2)" x="5.67063111e-14" y="63.8456304" width="63.8456304" height="63.8456304"></rect>
            <path d="M72.2431996,43.346207 C87.6402541,42.186085 96.9473168,34.8541349 99.847392,25.0822108 C79.5280243,34.444648 54.173288,22.9910387 49.3745589,43.678061 L46.9145105,54.7063287 C51.1939639,48.0665157 56.8466994,44.5063291 72.2431996,43.346207 Z M64.2372078,45.2241617 C56.6697467,46.3143048 50.599706,49.82474 47.1931018,55.9905543 C46.09636,57.9745711 45.7111983,60.1067462 45.7111983,60.1067462 L43.969934,67.9126954 C46.1512248,64.0228419 50.0521665,59.0515929 60.2758597,56.6859715 C60.5058483,55.4482162 61.9018522,48.3529925 64.2372078,45.2241617 Z M42.3810719,75.035419 L39.7215152,86.958653 C46.7680383,73.5418027 61.9323329,70.937815 63.8049399,70.5463692 C77.010174,67.7849289 83.3678391,61.228216 85.8960526,52.7077149 C74.3738932,59.2234243 47.4790636,51.0418845 42.3810719,75.035419 Z M38.4406164,92.7034448 L36.4832181,101.478714 C52.0997317,100.599601 53.8221534,85.5918194 56.370318,73.6696783 C51.5117362,75.3655778 40.8042357,82.0114049 38.4406164,92.7034448 Z" fill="#FFFFFF" mask="url(#mask-2)"></path>
        </g>
    </g>
</svg>

<svg xmlns="http://www.w3.org/2000/svg" xmlns:xlink="http://www.w3.org/1999/xlink" viewBox="0 0 511.999 127.691">
  <defs>
    <path id="a" d="M3.99 0H123.7a3.99 3.99 0 0 1 3.991 3.99V123.7a3.99 3.99 0 0 1-3.99 3.991H3.99A3.99 3.99 0 0 1 0 123.701V3.99A3.99 3.99 0 0 1 3.99 0z"/>
  </defs>
  <path fill="#3a3335" d="M160.082 85.128V65.527h17.75V59.27h-17.75V46.692H179.3v-6.256h-25.858v44.692zm39.201.957c3.065 0 5.821-.68 8.269-2.043 2.447-1.362 4.373-3.235 5.778-5.618 1.404-2.384 2.106-5.065 2.106-8.045 0-2.98-.702-5.66-2.106-8.044-1.405-2.384-3.331-4.257-5.779-5.619-2.447-1.362-5.203-2.043-8.268-2.043-3.064 0-5.82.681-8.268 2.043-2.447 1.362-4.373 3.235-5.778 5.619-1.404 2.383-2.106 5.065-2.106 8.044 0 2.98.702 5.661 2.106 8.045 1.405 2.383 3.331 4.256 5.778 5.618 2.448 1.362 5.204 2.043 8.268 2.043zm0-6.129c-2.809 0-5.097-.873-6.863-2.618-1.766-1.745-2.65-4.064-2.65-6.959 0-2.894.884-5.214 2.65-6.959 1.766-1.745 4.054-2.618 6.863-2.618 2.81 0 5.098.873 6.864 2.618 1.766 1.745 2.65 4.065 2.65 6.96 0 2.894-.884 5.213-2.65 6.958-1.767 1.745-4.054 2.618-6.864 2.618zm28.156 5.172V72.039c0-3.448.788-5.97 2.363-7.566s3.916-2.394 7.023-2.394h.957v-7.342h-.447c-2.426 0-4.48.66-6.16 1.98-1.682 1.319-2.884 3.106-3.608 5.362h-.128v-6.448h-6.256v29.497zm28.284.957c5.49 0 9.939-2.34 13.344-7.023l-4.406-4.15a16.08 16.08 0 0 1-3.735 3.671c-1.425 1-3.202 1.5-5.33 1.5-2.554 0-4.65-.797-6.29-2.394-1.638-1.596-2.521-3.692-2.649-6.288h22.857v-1.022c0-4.81-1.245-8.63-3.735-11.46-2.49-2.83-5.949-4.246-10.375-4.246-3.065 0-5.736.681-8.013 2.043s-4.022 3.246-5.235 5.65c-1.213 2.405-1.82 5.098-1.82 8.077 0 3.107.628 5.842 1.884 8.204 1.255 2.362 3.043 4.193 5.363 5.49 2.32 1.3 5.033 1.948 8.14 1.948zm7.023-19.217h-15.77c.383-2.086 1.277-3.682 2.682-4.789 1.404-1.106 3.192-1.66 5.363-1.66 2.256 0 4.075.564 5.459 1.692 1.383 1.128 2.138 2.714 2.266 4.757zm21.644 19.217c3.533 0 6.331-.755 8.395-2.266 2.065-1.511 3.097-3.735 3.097-6.672 0-1.958-.49-3.607-1.469-4.948-.978-1.341-2.447-2.458-4.405-3.352l-5.49-2.618c-1.277-.596-2.16-1.149-2.65-1.66a2.579 2.579 0 0 1-.734-1.851c0-1.49 1.213-2.235 3.639-2.235 2.256 0 4.873.639 7.853 1.915l2.554-5.426a27.33 27.33 0 0 0-5.076-1.692c-1.766-.405-3.48-.607-5.14-.607-3.277 0-5.842.724-7.693 2.17-1.852 1.448-2.777 3.512-2.777 6.194 0 3.703 2.064 6.533 6.193 8.491l5.363 2.618c1.191.596 2.01 1.139 2.458 1.628.447.49.67 1.054.67 1.692 0 1.83-1.532 2.745-4.597 2.745-3.022 0-6.15-.936-9.385-2.809l-2.81 5.555c1.703.979 3.608 1.745 5.715 2.298 2.107.554 4.203.83 6.289.83zm29.816-.894v-5.746h-1.533c-1.064 0-1.84-.244-2.33-.734s-.734-1.266-.734-2.33V60.93h6.001v-5.3h-6.001V43.82h-6.257v11.81h-5.235v5.3h5.235v16.664c0 2.426.68 4.299 2.043 5.618 1.362 1.32 3.341 1.98 5.938 1.98zM343 85.128l4.278-11.11h19.536l4.278 11.11h7.278l-18.26-44.692h-6.129l-18.26 44.692zm21.452-17.239H349.64l7.406-19.154zm30.518 18.196c2.341 0 4.342-.468 6.002-1.404a10.533 10.533 0 0 0 3.958-3.895h.128v4.342h6.257V40.436h-6.257v19.536h-.128a10.533 10.533 0 0 0-3.958-3.894c-1.66-.937-3.66-1.405-6.002-1.405-2.639 0-5.043.639-7.214 1.916-2.171 1.276-3.905 3.096-5.204 5.458-1.298 2.363-1.947 5.14-1.947 8.332 0 3.192.65 5.97 1.947 8.332 1.299 2.362 3.033 4.182 5.204 5.459 2.17 1.277 4.575 1.915 7.214 1.915zm1.341-6.129c-2.724 0-4.916-.883-6.576-2.65-1.66-1.766-2.49-4.075-2.49-6.927 0-2.852.83-5.16 2.49-6.927 1.66-1.766 3.852-2.65 6.576-2.65 2.724 0 4.916.884 6.576 2.65 1.66 1.766 2.49 4.075 2.49 6.927 0 2.852-.83 5.161-2.49 6.927-1.66 1.767-3.852 2.65-6.576 2.65zm29.241 5.172v-15.26c0-3.064.596-5.32 1.788-6.767 1.192-1.447 2.788-2.171 4.789-2.171 1.915 0 3.373.532 4.373 1.596s1.5 2.618 1.5 4.66v17.942h6.257V69.805c0-3.065.596-5.31 1.788-6.736 1.192-1.426 2.81-2.139 4.852-2.139 1.873 0 3.31.532 4.31 1.596 1 1.064 1.5 2.618 1.5 4.66v17.942h6.257v-18.26c0-4.129-.936-7.194-2.81-9.194-1.872-2-4.298-3-7.278-3-2 0-3.83.5-5.49 1.5-1.66 1-2.916 2.5-3.767 4.5h-.128c-1.66-4-4.64-6-8.938-6-2 0-3.778.446-5.331 1.34-1.554.894-2.735 2.298-3.544 4.214h-.128V55.63h-6.256v29.497zm48.204-35.754c1.277 0 2.362-.447 3.256-1.34.894-.895 1.34-1.98 1.34-3.257 0-1.277-.446-2.362-1.34-3.256-.894-.894-1.98-1.34-3.256-1.34-1.277 0-2.362.446-3.256 1.34-.894.894-1.341 1.98-1.341 3.256 0 1.277.447 2.362 1.34 3.256.895.894 1.98 1.34 3.257 1.34zm3.128 35.754V55.63h-6.257v29.497zm14.238 0v-14.11c0-3.49.702-6.044 2.107-7.662 1.404-1.617 3.32-2.426 5.746-2.426 4.512 0 6.768 2.384 6.768 7.15v17.048h6.256V66.995c0-4.256-1-7.374-3-9.353-2-1.98-4.704-2.969-8.109-2.969-4.384 0-7.597 1.81-9.64 5.427h-.128v-4.47h-6.257v29.498z"/>
  <mask id="b" fill="#fff">
    <use width="100%" height="100%" xlink:href="#a"/>
  </mask>
  <use width="100%" height="100%" fill="#9b183d" xlink:href="#a"/>
  <path fill="#9b183d" d="M0 0h127.691v127.691H0z" mask="url(#b)"/>
  <path fill="#ee0036" d="M63.846 0h63.846v63.846H63.846z" mask="url(#b)"/>
  <path fill="#702440" d="M0 63.846h63.846v63.846H0z" mask="url(#b)"/>
  <path fill="#fff" d="M72.243 43.346c15.397-1.16 24.704-8.492 27.604-18.264-20.319 9.363-45.674-2.091-50.472 18.596l-2.46 11.028c4.279-6.64 9.932-10.2 25.328-11.36zm-8.006 1.878c-7.567 1.09-13.637 4.6-17.044 10.767-1.097 1.984-1.482 4.116-1.482 4.116l-1.741 7.806c2.181-3.89 6.082-8.861 16.306-11.227.23-1.238 1.626-8.333 3.961-11.462zM42.381 75.035l-2.66 11.924c7.047-13.417 22.211-16.021 24.084-16.413 13.205-2.761 19.563-9.318 22.091-17.838-11.522 6.515-38.417-1.666-43.515 22.327zm-3.94 17.668-1.958 8.776c15.617-.88 17.34-15.887 19.887-27.81-4.858 1.697-15.566 8.342-17.93 19.034z" mask="url(#b)"/>
</svg>
